X: 559
T: Polska från Transtrand
O: Dalarna, Transtrand
R: Polska
Z: Håkan Lidén, 2008-09-28
M: 9/8
L: 1/4
K: Ddor
A3/2 a/ ^g a b/ | a =g/ f e/ f g/ | f e/ d/^c/d/ e f/ | d f/ g/a/g/ f e/ |
A3/2 a/ ^g a b/ | a =g/ f e/ f a/ | g b/ a f/ e d/ | ^c/B/c/ d3 :|
|:  A/B/^c/ d c/ d e/ | f g/ f e/ d g/ | f e/ d/^c/d/ e f/ | d f/ g/a/g/ f e/ |
A/B/^c/ d c/ d e/ | f g/ f e/ f a/ | g b/ a f/ e d/ | ^c/B/c/ d3 :|]
(:musicend:)

(:music:)
